assets/img/braze_icons/thermometer-02.svg

<svg fill="none" height="24" viewBox="0 0 24 24" width="24" xmlns="http://www.w3.org/2000/svg"><path clip-rule="evenodd" d="m12 1c-1.933 0-3.5 1.567-3.5 3.5v8.7572c-1.22003 1.0077-2 2.534-2 4.2428 0 3.0376 2.46243 5.5 5.5 5.5 3.0376 0 5.5-2.4624 5.5-5.5 0-1.7088-.78-3.2351-2-4.2428v-8.7572c0-1.933-1.567-3.5-3.5-3.5zm0 14.5c-1.1046 0-2 .8954-2 2s.8954 2 2 2 2-.8954 2-2-.8954-2-2-2z" fill="#801ed7" fill-rule="evenodd"/></svg>

<svg width="24" height="24" viewBox="0 0 24 24" fill="none" xmlns="http://www.w3.org/2000/svg">
<path fill-rule="evenodd" clip-rule="evenodd" d="M12 1C10.067 1 8.5 2.567 8.5 4.5V13.2572C7.27997 14.2649 6.5 15.7912 6.5 17.5C6.5 20.5376 8.96243 23 12 23C15.0376 23 17.5 20.5376 17.5 17.5C17.5 15.7912 16.72 14.2649 15.5 13.2572V4.5C15.5 2.567 13.933 1 12 1ZM12 15.5C10.8954 15.5 10 16.3954 10 17.5C10 18.6046 10.8954 19.5 12 19.5C13.1046 19.5 14 18.6046 14 17.5C14 16.3954 13.1046 15.5 12 15.5Z" fill="#801ED7"/>
</svg>
